X: 1
T: Lake Shore, The
M: 6/8
L: 1/8
R: jig
K: Dmaj
A|:DED DEG|AdB =cAG|EGG EGG|EGE GED|
DED DEG|AdB =cAG|EGG EAG|1EDC D2A:|2EDC Dde||
fdd cde|fdd d2e|fdd e2d|cAA Ade|
fed edc|AdB =cAG|EGG EAG|1EDC Dde:|2EDC D2||
